X:13
T:Ironbridge Hornpipe, The
S:John Moore's Book 3
Z:Transcribed by Steve Mansfield 05/2021
%%VWML: Moore1-4495-p9-0
F:https://www.vwml.org/record/Moore3/4495/p9
M:C
L:1/8
K:Bb
fd | B2B2 FcdB | cBcd edcB | ABcd cBAG | (3FAc fgfedc | 
BdFA DFBd | gb=eg c2 cB | ABcd eFGA | c2 B2 B2 :|
|: AB | cfag f=eg fe | dfba g2gf | (3edc (3dcB (3gfe (3dcB | (3ABc (3BAG (3FAc f2e | 
dfBd DFBd | gb=eg c2cB | ABcd fFGA | c2 B2 B2 :|

